flaticon/holiday/church.svg

<svg xmlns="http://www.w3.org/2000/svg" width="32" height="32" viewBox="0 0 24 24">
    <path d="M2.148438 12.695312C2.378906 12.695312 2.601562 12.632812 2.796875 12.503906L12.097656 6.492188 21.203125 12.378906C21.757812 12.738281 22.503906 12.578125 22.863281 12.019531 23.222656 11.464844 23.0625 10.722656 22.503906 10.363281L13.347656 4.441406 13.347656 3.601562 14.148438 3.601562C14.367188 3.601562 14.546875 3.421875 14.546875 3.199219L14.546875 1.601562C14.546875 1.378906 14.367188 1.199219 14.148438 1.199219L13.347656 1.199219 13.347656.398438C13.347656.179688 13.167969 0 12.945312 0L11.347656 0C11.125 0 10.945312.179688 10.945312.398438L10.945312 1.199219 10.148438 1.199219C9.925781 1.199219 9.746094 1.378906 9.746094 1.601562L9.746094 3.199219C9.746094 3.421875 9.925781 3.601562 10.148438 3.601562L10.945312 3.601562 10.945312 4.378906 1.496094 10.488281C1.226562 10.664062 1.042969 10.933594.972656 11.246094.90625 11.5625.964844 11.882812 1.136719 12.148438 1.3125 12.417969 1.582031 12.601562 1.894531 12.671875 1.980469 12.6875 2.066406 12.695312 2.148438 12.695312zM10.546875 2.800781L10.546875 2 11.347656 2C11.566406 2 11.746094 1.820312 11.746094 1.601562L11.746094.800781 12.546875.800781 12.546875 1.601562C12.546875 1.820312 12.726562 2 12.945312 2L13.746094 2 13.746094 2.800781 12.945312 2.800781C12.726562 2.800781 12.546875 2.980469 12.546875 3.199219L12.546875 3.953125C12.535156 3.949219 12.519531 3.945312 12.507812 3.941406 12.464844 3.925781 12.417969 3.914062 12.371094 3.902344 12.347656 3.898438 12.328125 3.894531 12.308594 3.890625 12.257812 3.882812 12.203125 3.878906 12.152344 3.875 12.140625 3.875 12.128906 3.875 12.117188 3.875 12.113281 3.875 12.109375 3.875 12.105469 3.875 12.0625 3.875 12.015625 3.878906 11.96875 3.886719 11.957031 3.886719 11.941406 3.886719 11.925781 3.890625 11.867188 3.898438 11.808594 3.914062 11.75 3.929688 11.75 3.933594 11.746094 3.933594 11.746094 3.933594L11.746094 3.199219C11.746094 2.980469 11.566406 2.800781 11.347656 2.800781zM1.757812 11.414062C1.777344 11.308594 1.839844 11.21875 1.929688 11.160156L11.671875 4.863281C11.691406 4.847656 11.71875 4.835938 11.753906 4.824219L11.8125 4.804688 11.867188 4.761719C11.902344 4.734375 11.941406 4.714844 11.980469 4.699219 11.996094 4.695312 12.007812 4.695312 12.023438 4.691406 12.050781 4.683594 12.078125 4.675781 12.109375 4.675781 12.132812 4.675781 12.15625 4.679688 12.179688 4.683594 12.195312 4.683594 12.207031 4.683594 12.222656 4.6875 12.261719 4.699219 12.296875 4.714844 12.328125 4.738281L22.070312 11.035156C22.160156 11.09375 22.222656 11.183594 22.246094 11.285156 22.265625 11.390625 22.246094 11.5 22.191406 11.585938 22.070312 11.773438 21.824219 11.828125 21.636719 11.707031L12.097656 5.539062 2.363281 11.832031C2.273438 11.890625 2.167969 11.910156 2.0625 11.886719 1.957031 11.863281 1.867188 11.804688 1.808594 11.714844 1.753906 11.625 1.734375 11.519531 1.757812 11.414062zM9.136719 15.691406L7.640625 13.898438C7.296875 13.484375 6.597656 13.484375 6.25 13.898438L4.757812 15.691406C4.621094 15.855469 4.546875 16.058594 4.546875 16.273438L4.546875 17.6875C4.546875 18.082031 4.867188 18.398438 5.257812 18.398438L8.636719 18.398438C9.027344 18.398438 9.347656 18.082031 9.347656 17.6875L9.347656 16.273438C9.347656 16.058594 9.273438 15.855469 9.136719 15.691406zM8.546875 17.601562L5.347656 17.601562 5.347656 16.273438C5.347656 16.246094 5.355469 16.222656 5.371094 16.203125L6.867188 14.410156C6.917969 14.347656 6.976562 14.347656 7.027344 14.410156L8.523438 16.203125C8.539062 16.222656 8.546875 16.246094 8.546875 16.273438zM15.660156 18.398438L19.035156 18.398438C19.425781 18.398438 19.746094 18.082031 19.746094 17.6875L19.746094 16.273438C19.746094 16.0625 19.671875 15.855469 19.535156 15.691406L18.042969 13.898438C17.699219 13.484375 16.996094 13.484375 16.652344 13.898438L15.15625 15.691406C15.019531 15.855469 14.945312 16.0625 14.945312 16.273438L14.945312 17.6875C14.945312 18.082031 15.265625 18.398438 15.660156 18.398438zM15.746094 16.273438C15.746094 16.246094 15.753906 16.222656 15.769531 16.203125L17.265625 14.410156C17.316406 14.347656 17.375 14.347656 17.425781 14.410156L18.921875 16.203125C18.9375 16.222656 18.945312 16.246094 18.945312 16.273438L18.945312 17.601562 15.746094 17.601562zM15.746094 16.273438"/>
    <path d="M 10.945312 12.800781 L 13.347656 12.800781 C 13.566406 12.800781 13.746094 12.621094 13.746094 12.398438 L 13.746094 10.800781 C 13.746094 9.917969 13.027344 9.199219 12.148438 9.199219 C 11.265625 9.199219 10.546875 9.917969 10.546875 10.800781 L 10.546875 12.398438 C 10.546875 12.621094 10.726562 12.800781 10.945312 12.800781 Z M 11.347656 10.800781 C 11.347656 10.359375 11.707031 10 12.148438 10 C 12.589844 10 12.945312 10.359375 12.945312 10.800781 L 12.945312 12 L 11.347656 12 Z M 11.347656 10.800781"/>
    <path d="M 21.746094 21.601562 L 20.945312 21.601562 L 20.945312 13.472656 C 20.945312 13.167969 20.796875 12.886719 20.542969 12.714844 L 12.148438 7.121094 L 3.769531 12.710938 C 3.503906 12.878906 3.347656 13.167969 3.347656 13.480469 L 3.347656 21.601562 L 2.546875 21.601562 C 1.886719 21.601562 1.347656 22.136719 1.347656 22.800781 C 1.347656 23.460938 1.886719 24 2.546875 24 L 21.746094 24 C 22.410156 24 22.945312 23.460938 22.945312 22.800781 C 22.945312 22.136719 22.410156 21.601562 21.746094 21.601562 Z M 4.148438 13.480469 C 4.148438 13.441406 4.164062 13.40625 4.203125 13.382812 L 12.148438 8.082031 L 20.097656 13.382812 C 20.128906 13.402344 20.148438 13.4375 20.148438 13.472656 L 20.148438 21.601562 L 14.546875 21.601562 L 14.546875 16.570312 C 14.546875 16.253906 14.449219 15.945312 14.261719 15.6875 L 13.125 14.09375 C 12.898438 13.777344 12.535156 13.589844 12.148438 13.589844 C 11.761719 13.589844 11.394531 13.777344 11.167969 14.09375 L 10.03125 15.6875 C 9.84375 15.945312 9.746094 16.253906 9.746094 16.570312 L 9.746094 21.601562 L 4.148438 21.601562 Z M 13.746094 21.601562 L 10.546875 21.601562 L 10.546875 16.570312 C 10.546875 16.421875 10.59375 16.277344 10.679688 16.152344 L 11.820312 14.558594 C 11.894531 14.453125 12.015625 14.390625 12.148438 14.390625 C 12.277344 14.390625 12.398438 14.453125 12.472656 14.558594 L 13.613281 16.152344 C 13.699219 16.277344 13.746094 16.421875 13.746094 16.570312 Z M 21.746094 23.199219 L 2.546875 23.199219 C 2.328125 23.199219 2.148438 23.019531 2.148438 22.800781 C 2.148438 22.578125 2.328125 22.398438 2.546875 22.398438 L 21.746094 22.398438 C 21.96875 22.398438 22.148438 22.578125 22.148438 22.800781 C 22.148438 23.019531 21.96875 23.199219 21.746094 23.199219 Z M 21.746094 23.199219"/>
</svg>

<svg xmlns="http://www.w3.org/2000/svg" width="32" height="32" viewBox="0 0 24 24">
    <path d="M2.148 12.695c.23 0 .454-.062.649-.191l9.3-6.012 9.106 5.887c.555.36 1.3.2 1.66-.36.36-.554.2-1.296-.36-1.656l-9.155-5.922v-.84h.8c.22 0 .399-.18.399-.402V1.602a.401.401 0 0 0-.399-.403h-.8V.4A.401.401 0 0 0 12.945 0h-1.597a.401.401 0 0 0-.403.398V1.2h-.797a.402.402 0 0 0-.402.403v1.597c0 .223.18.403.402.403h.797v.777l-9.449 6.11c-.27.175-.453.445-.523.757a1.197 1.197 0 0 0 1.175 1.45zm8.399-9.894V2h.8a.4.4 0 0 0 .4-.398V.8h.8v.8a.4.4 0 0 0 .398.399h.801v.8h-.8a.4.4 0 0 0-.4.4v.753l-.038-.012a1.396 1.396 0 0 0-.137-.039l-.062-.011c-.051-.008-.106-.012-.157-.016h-.047a.843.843 0 0 0-.136.012c-.012 0-.028 0-.043.004a1.419 1.419 0 0 0-.176.039c0 .004-.004.004-.004.004v-.735a.4.4 0 0 0-.398-.398zm-8.79 8.613a.387.387 0 0 1 .173-.254l9.742-6.297a.268.268 0 0 1 .082-.039l.059-.02.054-.042a.461.461 0 0 1 .113-.063c.016-.004.028-.004.043-.008.028-.007.055-.015.086-.015.024 0 .047.004.07.008a.16.16 0 0 1 .044.003.33.33 0 0 1 .105.051l9.742 6.297c.09.059.153.149.176.25.02.106 0 .215-.055.3a.4.4 0 0 1-.554.122l-9.54-6.168-9.734 6.293a.389.389 0 0 1-.3.055.4.4 0 0 1-.254-.172.404.404 0 0 1-.051-.3zm0 0M9.137 15.691L7.64 13.898c-.344-.414-1.043-.414-1.391 0l-1.492 1.793a.903.903 0 0 0-.211.582v1.415c0 .394.32.71.71.71h3.38c.39 0 .71-.316.71-.71v-1.415a.903.903 0 0 0-.21-.582zm-.59 1.91h-3.2v-1.328a.11.11 0 0 1 .024-.07l1.496-1.793c.051-.062.11-.062.16 0l1.496 1.793a.11.11 0 0 1 .024.07zm0 0M15.66 18.398h3.375c.39 0 .711-.316.711-.71v-1.415a.911.911 0 0 0-.21-.582l-1.493-1.793c-.344-.414-1.047-.414-1.39 0l-1.497 1.793a.911.911 0 0 0-.21.582v1.415c0 .394.32.71.714.71zm.086-2.125a.11.11 0 0 1 .024-.07l1.496-1.793c.05-.062.109-.062.16 0l1.496 1.793a.11.11 0 0 1 .023.07v1.329h-3.199zm0 0"/>
    <path d="M10.945 12.8h2.403c.218 0 .398-.179.398-.402v-1.597c0-.883-.719-1.602-1.598-1.602-.882 0-1.601.719-1.601 1.602v1.597c0 .223.18.403.398.403zm.403-2a.799.799 0 0 1 1.598 0V12h-1.598zm0 0"/>
    <path d="M21.746 21.602h-.8v-8.13a.91.91 0 0 0-.403-.757L12.148 7.12l-8.378 5.59a.906.906 0 0 0-.422.77v8.12h-.801a1.2 1.2 0 0 0 0 2.399h19.2a1.2 1.2 0 0 0 0-2.398zM4.148 13.48c0-.039.016-.074.055-.097l7.945-5.301 7.95 5.3c.03.02.05.056.05.09v8.13h-5.601V16.57c0-.316-.098-.625-.285-.883l-1.137-1.593a1.202 1.202 0 0 0-1.957 0l-1.137 1.594a1.497 1.497 0 0 0-.285.882v5.032H4.148zm9.598 8.122h-3.2V16.57c0-.148.048-.293.134-.418l1.14-1.593a.398.398 0 0 1 .328-.168c.13 0 .25.062.325.168l1.14 1.593c.086.125.133.27.133.418zm8 1.597h-19.2a.4.4 0 0 1 0-.8h19.2a.401.401 0 0 1 0 .8zm0 0"/>
</svg>
